!!!!SEGMENT: pl-kk--kk-i-7--085_gorczycki-grzegorz-gerwazy--sub-tuum-praesidium.krn
!!!id: 16xx:924
!!!COM: Gorczycki, Grzegorz Gerwazy
!!!COM-rism: pe30009207
!!!CDT: ~1666-1734/04/30
!!!CNT: Polish
!!!OTL: Sub tuum praesidium
!!!PDT:
!!!SMS-siglum: PL-Kk
!!!SMS-shelfmark: Kk.I.7
!!!NIFC-rismID: 300258162
!!!URL-scan: http://repozytorium.nifc.pl/skany/pl-kk-nut--i-7
!!!ONB-nifc: UWAGA: C (skan 0072, s.136), A (brak), T(0235, s.136), B(0322, s.130). Następny utwór: Tollite portas
!!!SMS-variant:
!!!SMS-altvar:
**kern	**fba	**text	**kern	**text	**kern	**kern	**text
*part4	*part4	*part4	*part3	*part3	*part2	*part1	*part1
*staff4	*	*staff4	*staff3	*staff3	*staff2	*staff1	*staff1
*I"[Baſso]	*	*	*I"[Tenore]	*	*I"[Alto]	*I"[Canto]	*
*I'B	*	*	*I'T	*	*I'A	*I'S	*
*clefF4	*	*	*clefC4	*	*clefC4	*clefC1	*
*k[]	*	*	*k[]	*	*k[]	*k[]	*
*M2/1	*	*	*M2/1	*	*M2/1	*M2/1	*
=1-	=1-	=1-	=1-	=1-	=1-	=1-	=1-
!	!	!	!LO:TX:t=P:problem:kreska pseudotaktowa	!	!	!	!
!	!	!	!LO:TX:a:t=De B. V. Maria	!	!	!LO:TX:a:t=[De] B. V. [M]aria	!
!LO:TX:t=P:problem:przed kluczem inicjał S	!	!	!LO:TX:t=P:problem:przed kluczem inicjał S	!	!	!LO:TX:t=P:problem:przed kluczem inicjał S	!
!LO:TX:t=P:problem:met(c|)	!	!	!LO:TX:t=P:problem:met(c|)	!	!LO:TX:t=P:problem:brak strony w źródle	!LO:TX:t=P:problem:met(c|)	!
1.E\	.	Sub	0r	.	0ryy	00r	.
*2\right	*	*	*	*	*	*	*
2E\	n	Tu-	.	.	.	.	.
=2-	=2-	=2-	=2-	=2-	=2-	=2-	=2-
1C/	.	-um	1.A\	Sub	0ryy	.	.
!LO:TX:t=P:problem:kreska pseudotaktowa	!	!	!	!	!	!	!
1AA/	.	prae-	.	.	.	.	.
!	!	!	!LO:TX:t=P:problem:kreska pseudotaktowa	!	!	!	!
.	.	.	2A/	Tu-	.	.	.
=3-	=3-	=3-	=3-	=3-	=3-	=3-	=3-
!	!	!	!	!	!	!LO:TX:t=P:problem:kreska pseudotaktowa	!
2.E\	.	-si-	2G#X/	-um	0ryy	0r	.
!	!	!	!LO:TX:t=P:problem:kreska pseudotaktowa	!	!	!	!
.	.	.	2E/	prae-	.	.	.
!LO:TX:t=P:problem:kreska pseudotaktowa	!	!	!	!	!	!	!
4E\	.	-di-	.	.	.	.	.
*	*	*	*2\right	*	*	*	*
2AA,/	.	-um	2.A\	-si-	.	.	.
2.A\	.	con-	.	.	.	.	.
!	!	!	!LO:TX:t=P:problem:kreska pseudotaktowa	!	!	!	!
.	.	.	4A\	-di-	.	.	.
=4-	=4-	=4-	=4-	=4-	=4-	=4-	=4-
.	.	.	2A,\	-um	0ryy	1.a\	Sub
(4G\	.	.	.	.	.	.	.
*	*	*	*	*ij	*	*	*
4F\)	.	.	2c\	prae-	.	.	.
!LO:TX:t=P:problem:kreska pseudotaktowa	!	!	!	!	!	!	!
4E\	.	.	.	.	.	.	.
2.D\	.	-fu-	2.d\	-si-	.	.	.
*	*	*	*	*	*	*2\right	*
.	.	.	.	.	.	2a\	Tu-
4D\	.	-gi-	4d\	-di-	.	.	.
=5-	=5-	=5-	=5-	=5-	=5-	=5-	=5-
!	!	!	!LO:TX:t=P:problem:kreska pseudotaktowa	!	!	!	!
1E\,	.	-m(us)	1B\	-um	0ryy	2g#X/	-um
*	*	*	*	*Xij	*	*	*
!	!	!	!	!	!	!LO:TX:t=P:problem:kreska pseudotaktowa	!
.	.	.	.	.	.	2e/	prae-
!LO:TX:a:t=3	!	!	!	!	!	!	!
0r	.	.	2.e\	con-	.	1b\	-si-
!	!	!	!LO:TX:t=P:problem:kreska pseudotaktowa	!	!	!	!
.	.	.	4d\	.	.	.	.
=6-	=6-	=6-	=6-	=6-	=6-	=6-	=6-
.	.	.	4c\	.	0ryy	2.cc\	.
.	.	.	4B\	.	.	.	.
!	!	!	!LO:TX:t=P:problem:kreska pseudotaktowa	!	!	!	!
.	.	.	2A/	.	.	.	.
!	!	!	!	!	!	!LO:TX:t=P:problem:kreska pseudotaktowa	!
.	.	.	.	.	.	4b\	-di-
!LO:TX:t=P:problem:kreska pseudotaktowa	!	!	!	!	!	!LO:TX:t=P:problem:oddech jako rozdzielacz słów, przeważnie na wysokości dźwięku poprzedzającego:global	!
1r	.	.	2d\	.	.	2a,\	-um
!	!	!	!	!	!	!LO:TX:t=P:problem:kreska pseudotaktowa:między nutą a kropką	!
.	.	.	2.c\	-fu-	.	2.ee\	con-
=7-	=7-	=7-	=7-	=7-	=7-	=7-	=7-
2.A\	.	con-	.	.	0ryy	.	.
.	.	.	4B\	-gi-	.	4dd\	.
!	!	!	!LO:TX:t=P:problem:kreska pseudotaktowa	!	!	!	!
.	.	.	2A,/	-m(us)	.	4cc\	.
!LO:TX:t=P:problem:kreska pseudotaktowa	!	!	!	!	!	!LO:TX:t=P:problem:kreska pseudotaktowa	!
4G\	.	.	.	.	.	4b\	.
4F\	.	.	2.d\	con-	.	2a\	.
4E\	.	.	.	.	.	.	.
!LO:TX:t=P:problem:kreska pseudotaktowa	!	!	!	!	!	!	!
2D\	.	.	.	.	.	2.dd\	.
.	.	.	4c\	.	.	.	.
=8-	=8-	=8-	=8-	=8-	=8-	=8-	=8-
2.G\	.	.	4B\	.	0ryy	.	.
.	.	.	4A\	.	.	4cc\	.
.	.	.	4G/	.	.	4b\	.
!	!	!	!LO:TX:t=P:problem:kreska pseudotaktowa	!	!	!LO:TX:t=P:problem:kreska pseudotaktowa	!
4F\	.	.	4A/	.	.	4a\	.
2E\	.	.	4B\	.	.	4g#X/	.
.	.	.	4c\	.	.	4e/	.
!LO:TX:t=P:problem:kreska pseudotaktowa	!	!	!LO:TX:t=P:problem:kreska pseudotaktowa	!	!	!	!
2D\	.	.	2d\	.	.	4f#X/	.
!	!	!	!	!	!	!LO:TX:t=P:problem:kreska pseudotaktowa	!
.	.	.	.	.	.	4g#X/	.
=9-	=9-	=9-	=9-	=9-	=9-	=9-	=9-
4C/	.	.	4A/	.	0ryy	4a\	.
4BB/	.	.	4G#X/	.	.	4b\	.
4AA/	.	.	4c\	.	.	4cc\	.
!	!	!	!LO:TX:t=P:problem:kreska pseudotaktowa	!	!	!	!
!LO:TX:t=P:problem:kreska pseudotaktowa	!	!	!LO:SIC:v:t=custos A	!	!	!LO:TX:t=P:problem:kreska pseudotaktowa	!
4D/	.	.	4B\	.	.	4dd\	.
!	!	!	!LO:LB:g=original	!	!	!	!
2.E\	.	-fu-	2A/	-fu-	.	2cc\	.
.	.	.	2G#X/	-gi-	.	4b\	-fu-
!LO:TX:t=P:problem:kreska pseudotaktowa	!	!	!	!	!	!LO:TX:t=P:problem:kreska pseudotaktowa	!
4E\	.	-gi-	.	.	.	4b\	-gi-
=10-	=10-	=10-	=10-	=10-	=10-	=10-	=10-
!LO:TX:t=P:problem:kreska pseudotaktowa	!	!	!	!	!	!	!
!LO:SIC:v:t=custos A	!	!	!	!	!	!	!
1AA/,	.	-m(us)	2A\	-m(us)	0ryy	2a,\	-m(us)
!	!	!	!LO:TX:t=P:problem:kreska pseudotaktowa	!	!	!	!
.	.	.	2r	.	.	2.ee\	San-
!LO:LB:g=original	!	!	!LO:TX:t=P:problem:kreska pseudotaktowa	!	!	!	!
2.A\	.	San-	1r	.	.	.	.
.	.	.	.	.	.	4dd\	-cta
.	.	.	.	.	.	2cc\	De-
4G,\	.	-cta	.	.	.	.	.
=11-	=11-	=11-	=11-	=11-	=11-	=11-	=11-
2F\	.	De-	2r	.	0ryy	2a,\	-i
!LO:TX:t=P:problem:kreska pseudotaktowa	!	!	!	!	!	!	!
2D/	.	-i	2.A/	San-	.	4dd\	san-
!	!	!	!	!	!	!LO:TX:t=P:problem:kreska pseudotaktowa	!
!	!	!	!	!	!	!LO:SIC:v:t=custos cc##	!
.	.	.	.	.	.	4dd\	-cta
!	!	!	!	!	!	!LO:LB:g=original	!
1.AA/	.	Ge-	.	.	.	4cc#X\	De-
.	.	.	4G/	-cta	.	4cc#\	-i
.	.	.	4F/	De-	.	1dd\	Ge-
!	!	!	!LO:TX:t=P:problem:kreska pseudotaktowa	!	!	!	!
.	.	.	4D/	-i	.	.	.
=12-	=12-	=12-	=12-	=12-	=12-	=12-	=12-
.	.	.	2.A\	Ge-	0ryy	.	.
!LO:TX:t=P:problem:kreska pseudotaktowa	!	!	!	!	!	!LO:TX:t=P:problem:kreska pseudotaktowa	!
2AA/	.	-ni-	.	.	.	2cc#X\	-ni-
.	.	.	4A\	-ni-	.	.	.
2D,\	.	-trix	2A\	-trix	.	2dd,\	-trix
!	!	!	!LO:TX:t=P:problem:kreska pseudotaktowa	!	!	!LO:TX:t=P:problem:kreska pseudotaktowa	!
1G\	3	no-	2r	.	.	2b\	ne
.	2	.	.	.	.	.	.
=13-	=13-	=13-	=13-	=13-	=13-	=13-	=13-
.	.	.	2r	.	0ryy	2cc,\	ne
!	!	!	!	!	!	!LO:TX:t=P:problem:kreska pseudotaktowa	!
!LO:TX:t=P:problem:kreska pseudotaktowa	!	!	!	!	!	!LO:SIC:v:s=2a	!
2F#X\	6	-stras	1c\	no-	.	2b\	de-
1G\	.	de-	.	.	.	2.dd\	-ſpi-
.	.	.	2B\	-stras	.	.	.
.	.	.	.	.	.	4dd\	-ci-
=14-	=14-	=14-	=14-	=14-	=14-	=14-	=14-
2E\	.	-pre-	2c\	de-	0ryy	2g/	-as
!	!	!	!LO:TX:t=P:problem:kreska pseudotaktowa	!	!	!LO:TX:t=P:problem:kreska pseudotaktowa	!
1F\	.	-ca-	2A/	-pre-	.	2r	.
.	.	.	4B\	-ca-	.	2r	.
.	.	.	4B\	-ti-	.	.	.
2E\	6	-ti-	2c\	-o-	.	1cc\	no-
=15-	=15-	=15-	=15-	=15-	=15-	=15-	=15-
1D\	2	-o-	1d\	-nes	0ryy	.	.
!	!	!	!	!	!	!LO:TX:t=P:problem:kreska pseudotaktowa	!
.	6	.	.	.	.	2b\	-ſtras
!LO:TX:t=P:problem:kreska pseudotaktowa	!	!	!LO:TX:t=P:problem:kreska pseudotaktowa	!	!	!	!
1C/	.	-nes	1e\	.	.	2.cc\	de-
!	!	!	!	!	!	!LO:TX:t=P:problem:kreska pseudotaktowa	!
.	.	.	.	.	.	4cc\	-pre-
=16-	=16-	=16-	=16-	=16-	=16-	=16-	=16-
00r	.	.	00r	.	0ryy	4a\	-ca-
.	.	.	.	.	.	4b\	-ti-
.	.	.	.	.	.	1cc\	-o-
!	!	!	!	!	!	!LO:TX:t=P:problem:kreska pseudotaktowa	!
.	.	.	.	.	.	2b\	.
=17-	=17-	=17-	=17-	=17-	=17-	=17-	=17-
!	!	!	!LO:TX:t=P:problem:kreska pseudotaktowa	!	!	!	!
.	.	.	.	.	0ryy	2cc,\	-nes
!	!	!	!	!	!	!LO:TX:t=P:problem:kreska pseudotaktowa	!
.	.	.	.	.	.	2b\	nè
.	.	.	.	.	.	2cc\	nè
!	!	!	!	!	!	!LO:TX:t=P:problem:kreska pseudotaktowa	!
.	.	.	.	.	.	2a\	de-
=18-	=18-	=18-	=18-	=18-	=18-	=18-	=18-
0r	.	.	2r	.	0ryy	2.dd\	-ſpi-
.	.	.	2B\	nè	.	.	.
!	!	!	!	!	!	!LO:TX:t=P:problem:kreska pseudotaktowa	!
.	.	.	.	.	.	4dd\	-ci-
.	.	.	2c\	nè	.	2g,/	-as
!	!	!	!LO:TX:t=P:problem:kreska pseudotaktowa	!	!	!	!
*	*	*	*	*	*	*	*ij
.	.	.	2A\	deſ-	.	4cc\	nè
!	!	!	!	!	!	!LO:TX:t=P:problem:kreska pseudotaktowa	!
.	.	.	.	.	.	4b\	de-
=19-	=19-	=19-	=19-	=19-	=19-	=19-	=19-
!LO:TX:t=P:problem:kreska pseudotaktowa	!	!	!	!	!	!	!
1r	.	.	2.d\	-pi-	0ryy	2.a\	-ſpi-
.	.	.	4d\	-ci-	.	4a\	-ci-
2r	.	.	2G,/	-as	.	2b,\	-as
*	*	*	*	*	*	*	*Xij
2E\	6	nè	2G/	ne	.	1cc\	nè
=20-	=20-	=20-	=20-	=20-	=20-	=20-	=20-
2F\	.	nè	2A\	deſ-	0ryy	.	.
!	!	!	!	!	!	!LO:TX:t=P:problem:kreska pseudotaktowa	!
!LO:TX:t=P:problem:kreska pseudotaktowa	!	!	!	!	!	!LO:SIC:v:t=custos d	!
2D\	.	deſ-	1c\	-pi-	.	2ff,\	de-
!	!	!	!	!	!	!LO:LB:g=original	!
2.G\	.	-pi-	.	.	.	2.dd\	-spi-
.	.	.	4B\	.	.	.	.
!LO:TX:t=P:problem:kreska pseudotaktowa	!	!	!LO:TX:t=P:problem:kreska pseudotaktowa	!	!	!LO:TX:t=P:problem:kreska pseudotaktowa	!
4G\	.	-ci-	4B\	-ci-	.	4dd\	-ci-
=21-	=21-	=21-	=21-	=21-	=21-	=21-	=21-
!	!	!	!LO:TX:t=P:problem:kreska pseudotaktowa	!	!	!LO:TX:t=P:problem:kreska pseudotaktowa	!
2C,/	.	-as	1c\	-as	0ryy	0cc\	-as
1A\	.	in	.	.	.	.	.
!	!	!	!LO:LB:g=original	!	!	!	!
.	.	.	2r	.	.	.	.
!LO:TX:t=P:problem:kreska pseudotaktowa	!	!	!	!	!	!	!
2A\	.	ne-	1e\	in	.	.	.
=22-	=22-	=22-	=22-	=22-	=22-	=22-	=22-
2G\	.	-ceſ-	.	.	0ryy	00r	.
!	!	!	!LO:TX:t=P:problem:kreska pseudotaktowa	!	!	!	!
2E\	.	-si-	2e\	ne-	.	.	.
2.F\	.	-ta-	2c\	-ceſ-	.	.	.
.	.	.	2A\	-si-	.	.	.
4F\	.	-ti-	.	.	.	.	.
=23-	=23-	=23-	=23-	=23-	=23-	=23-	=23-
!LO:TX:t=P:problem:kreska pseudotaktowa	!	!	!	!	!	!LO:TX:t=P:problem:kreska pseudotaktowa	!
1E\	.	-bus	2B\	-ta-	0ryy	.	.
!	!	!	!LO:TX:t=P:problem:kreska pseudotaktowa	!	!	!	!
.	.	.	[<2c\	.	.	.	.
1D\	.	no-	4c\]	.	.	.	.
.	.	.	4c\	-ti-	.	.	.
.	.	.	1B\	-bus	.	.	.
=24-	=24-	=24-	=24-	=24-	=24-	=24-	=24-
!LO:SIC:v:t=custos BB	!	!	!	!	!	!	!
1C/	.	.	.	.	0ryy	2ee\	in
!	!	!	!	!	!	!LO:TX:t=P:problem:kreska pseudotaktowa	!
.	.	.	1A\	no-	.	2ee\	ne-
!LO:LB:g=original	!	!	!	!	!	!	!
1BB/	.	.	.	.	.	2dd\	-ceſ-
!	!	!	!LO:TX:t=P:problem:kreska pseudotaktowa	!	!	!LO:TX:t=P:problem:kreska pseudotaktowa	!
.	.	.	2G#X/	.	.	2b\	-si-
=25-	=25-	=25-	=25-	=25-	=25-	=25-	=25-
2.AA/	.	.	4A\	.	0ryy	2.cc\	-ta-
.	.	.	4B\	.	.	.	.
.	.	.	4c\	.	.	.	.
!LO:TX:t=P:problem:kreska pseudotaktowa	!	!	!LO:TX:t=P:problem:kreska pseudotaktowa	!	!	!LO:TX:t=P:problem:kreska pseudotaktowa	!
4BB/	.	.	4d\	.	.	4b\	-ti-
2C/	.	.	2e\	.	.	2a\	-bus
2D/	.	.	4d\	.	.	1a\	no-
.	.	.	4c\	.	.	.	.
=26-	=26-	=26-	=26-	=26-	=26-	=26-	=26-
1E\	.	.	1B\	.	0ryy	.	.
!	!	!	!	!	!	!LO:TX:t=P:problem:kreska pseudotaktowa	!
.	.	.	.	.	.	2g#X\	.
!LO:TX:t=P:problem:kreska pseudotaktowa	!	!	!LO:TX:t=P:problem:kreska pseudotaktowa	!	!	!	!
1AA/;	.	-stris	1c#X\	-stris.	.	1a\	-stris.
=27||-	=27||-	=27||-	=27||-	=27||-	=27||-	=27||-	=27||-
*M3/2	*	*	*M3/2	*	*M3/2	*M3/2	*
2A\	.	Sed	2c#X\	Sed	1.ryy	2a\	Sed
2A\	.	à	2c#\	à	.	2a\	à
!	!	!	!LO:TX:t=P:problem:kreska pseudotaktowa	!	!	!LO:TX:t=P:problem:kreska pseudotaktowa	!
2A\	.	pe-	2c#\	pe-	.	2a\	pe-
=28-	=28-	=28-	=28-	=28-	=28-	=28-	=28-
2.D/	.	-ri-	2.d\	-ri-	1.ryy	2.a\	-ri-
4D/	.	-cu-	4d\	-cu-	.	4a\	-cu-
!LO:TX:t=P:problem:kreska pseudotaktowa	!	!	!	!	!	!LO:TX:t=P:problem:kreska pseudotaktowa	!
2D/	.	-lis	2d\	-lis	.	2a\	-lis
=29-	=29-	=29-	=29-	=29-	=29-	=29-	=29-
1G\	.	cun-	1B\	cun-	1.ryy	1b\	cun-
!LO:TX:t=P:problem:kreska pseudotaktowa	!	!	!LO:TX:t=P:problem:kreska pseudotaktowa	!	!	!LO:TX:t=P:problem:kreska pseudotaktowa	!
2G,\	.	-ctis	2B\	-ctis	.	2b\	-ctis
=30-	=30-	=30-	=30-	=30-	=30-	=30-	=30-
2.c\	.	li-	2.c\	li-	1.ryy	2.ee\	li-
4c\	.	-be-	4c\	-be-	.	4ee\	-be-
4B\	.	-ra	4d\	-ra	.	4dd\	-ra
!LO:TX:t=P:problem:kreska pseudotaktowa	!	!	!LO:TX:t=P:problem:kreska pseudotaktowa	!	!	!LO:TX:t=P:problem:kreska pseudotaktowa	!
4B\	.	nos	4d\	nos	.	4dd\	nos
=31-	=31-	=31-	=31-	=31-	=31-	=31-	=31-
1c\	.	sem-	1e\	sem-	1.ryy	1cc\	sem-
!	!	!	!LO:TX:t=P:problem:kreska pseudotaktowa	!	!	!	!
!LO:TX:t=P:problem:kreska pseudotaktowa	!	!	!LO:SIC:v:t=custos e	!	!	!LO:TX:t=P:problem:kreska pseudotaktowa	!
2c,\	.	-per	2e\	-per	.	2cc\	-per
!	!	!	!LO:LB:g=original	!	!	!	!
=32-	=32-	=32-	=32-	=32-	=32-	=32-	=32-
2r	.	.	2r	.	1.ryy	2r	.
2c\	.	sem-	2e\	sem-	.	2cc\	sem-
!LO:TX:t=P:problem:kreska pseudotaktowa	!	!	!LO:TX:t=P:problem:kreska pseudotaktowa	!	!	!LO:TX:t=P:problem:kreska pseudotaktowa	!
2B\	.	-per	2d\	-per	.	2b\	-per
=33-	=33-	=33-	=33-	=33-	=33-	=33-	=33-
*	*	*ij	*	*ij	*	*	*ij
1c\	.	sem-	1e\	sem-	1.ryy	1cc\	sem-
!LO:TX:t=P:problem:kreska pseudotaktowa	!	!	!LO:TX:t=P:problem:kreska pseudotaktowa	!	!	!LO:TX:t=P:problem:kreska pseudotaktowa	!
2G\	.	-per	2d\	-per	.	2b\	-per
*	*	*Xij	*	*Xij	*	*	*Xij
!	!	!	!	!	!	!LO:LB:g=original	!
=34-	=34-	=34-	=34-	=34-	=34-	=34-	=34-
2r	.	.	2r	.	1.ryy	2.ee\	li-
2A\	.	sem-	2c\	sem-	.	.	.
.	.	.	.	.	.	4ee\	-be-
!LO:TX:t=P:problem:kreska pseudotaktowa	!	!	!	!	!	!	!
2G#X\	.	-per	2B\	-per	.	4ee\	-ra
!	!	!	!	!	!	!LO:TX:t=P:problem:kreska pseudotaktowa	!
.	.	.	.	.	.	4ee\	nos
=35-	=35-	=35-	=35-	=35-	=35-	=35-	=35-
*	*	*ij	*	*ij	*	*	*
1A\	.	sem-	1A\	sem-	1.ryy	1ee\	sem-
!LO:TX:t=P:problem:kreska pseudotaktowa	!	!	!LO:TX:t=P:problem:kreska pseudotaktowa	!	!	!LO:TX:t=P:problem:kreska pseudotaktowa	!
2E\	.	-per	2G#X/	-per	.	2ee\	-per
*	*	*Xij	*	*Xij	*	*	*
=36-	=36-	=36-	=36-	=36-	=36-	=36-	=36-
2r	.	.	2.c\	li-	1.ryy	2r	.
2F\	.	sem-	.	.	.	2cc\	sem-
.	.	.	4c\	-be-	.	.	.
!LO:TX:t=P:problem:kreska pseudotaktowa	!	!	!	!	!	!	!
2E\	.	-per	4c\	-ra	.	2ee,\	-per
!	!	!	!LO:TX:t=P:problem:kreska pseudotaktowa	!	!	!	!
.	.	.	4c\	nos	.	.	.
=37-	=37-	=37-	=37-	=37-	=37-	=37-	=37-
*	*	*ij	*	*	*	*	*ij
1F\	.	sem-	1c\	sem-	1.ryy	1cc\	sem-
!LO:TX:t=P:problem:kreska pseudotaktowa	!	!	!LO:TX:t=P:problem:kreska pseudotaktowa	!	!	!LO:TX:t=P:problem:kreska pseudotaktowa	!
2C/	.	-per	2c\	-p(er).	.	2cc\	-per
*	*	*Xij	*	*	*	*	*Xij
=38-	=38-	=38-	=38-	=38-	=38-	=38-	=38-
1.r	.	.	2.c\	Vir-	1.ryy	2.gg\	li-
.	.	.	4c\	-go	.	4gg\	-be-
.	.	.	4B\	glo-	.	4gg\	-ra
!	!	!	!LO:TX:t=P:problem:kreska pseudotaktowa	!	!	!LO:TX:t=P:problem:kreska pseudotaktowa	!
.	.	.	4A\	-ri-	.	4gg\	nos
=39-	=39-	=39-	=39-	=39-	=39-	=39-	=39-
!LO:TX:t=P:problem:kreska pseudotaktowa	!	!	!	!	!	!	!
1.r	.	.	4G/	-o-	1.ryy	1gg\	sem-
.	.	.	4F/	.	.	.	.
.	.	.	4G/	.	.	.	.
.	.	.	4A/	.	.	.	.
!	!	!	!	!	!	!LO:TX:t=P:problem:kreska pseudotaktowa	!
.	.	.	4B/	.	.	2gg\	-per
!	!	!	!LO:TX:t=P:problem:kreska pseudotaktowa	!	!	!	!
.	.	.	4c/	.	.	.	.
=40-	=40-	=40-	=40-	=40-	=40-	=40-	=40-
*	*	*	*	*	*	*	*ij
2.G\	.	Vir-	1d\	.	1.ryy	2.dd\	li-
4G,\	.	-go	.	.	.	4dd\	-be-
!	!	!	!LO:TX:t=P:problem:kreska pseudotaktowa	!	!	!	!
4F\	.	glo-	2d\	-sa	.	4dd\	-ra
!LO:TX:t=P:problem:kreska pseudotaktowa	!	!	!	!	!	!	!
!LO:SIC:v:t=custos D	!	!	!	!	!	!LO:TX:t=P:problem:kreska pseudotaktowa	!
4E\	.	-ri-	.	.	.	4dd\	nos
=41-	=41-	=41-	=41-	=41-	=41-	=41-	=41-
*	*	*	*	*ij	*	*	*
2D/	.	-o-	2.f\	glo-	1.ryy	1dd\	sem-
2D,/	.	-sa	.	.	.	.	.
.	.	.	4f\	.	.	.	.
!LO:TX:t=P:problem:kreska pseudotaktowa	!	!	!	!	!	!LO:TX:t=P:problem:kreska pseudotaktowa	!
2D/	.	et	4e\	-ri-	.	2dd\	-per
*	*	*	*	*	*	*	*Xij
!	!	!	!LO:TX:t=P:problem:kreska pseudotaktowa	!	!	!	!
.	.	.	4d\	.	.	.	.
=42-	=42-	=42-	=42-	=42-	=42-	=42-	=42-
1A\	.	be-	2c#X\	-o-	1.ryy	0.r	.
.	.	.	4c#\	-sa	.	.	.
*	*	*	*	*Xij	*	*	*
.	.	.	4c#\	et	.	.	.
!	!	!	!LO:N:vis=1.	!	!	!	!
1B-X\	.	-ne-	2.d\	be-	.	.	.
=43-	=43-	=43-	=43-	=43-	=43-	=43-	=43-
!	!	!	!	!	!	!LO:TX:t=P:problem:kreska pseudotaktowa	!
.	.	.	.	.	1.ryy	.	.
.	.	.	4d\	-ne-	.	.	.
!LO:TX:t=P:problem:kreska pseudotaktowa	!	!	!	!	!	!	!
1A\	.	-di-	(2d\	-di-	.	.	.
!	!	!	!LO:TX:t=P:problem:kreska pseudotaktowa	!	!	!	!
.	.	.	2c#X\)	.	.	.	.
=44-	=44-	=44-	=44-	=44-	=44-	=44-	=44-
2D/	.	-cta	1d\	-cta	1.ryy	2.dd\	Vir-
2r	.	.	.	.	.	.	.
.	.	.	.	.	.	4dd\	-go
!LO:TX:t=P:problem:kreska pseudotaktowa	!	!	!LO:TX:t=P:problem:kreska pseudotaktowa	!	!	!	!
2r	.	.	2r	.	.	4cc\	glo-
!	!	!	!	!	!	!LO:TX:t=P:problem:kreska pseudotaktowa	!
.	.	.	.	.	.	4b\	-ri-
!	!	!	!LO:LB:g=original	!	!	!	!
=45-	=45-	=45-	=45-	=45-	=45-	=45-	=45-
!	!	!	!LO:TX:t=P:problem:kreska pseudotaktowa	!	!	!	!
2.D/	.	Vir-	1.r	.	1.ryy	2.a\	-o-
4D,/	.	-go	.	.	.	4b\	-sa
4C/	.	glo-	.	.	.	(4cc\	.
!LO:TX:t=P:problem:kreska pseudotaktowa	!	!	!	!	!	!LO:TX:t=P:problem:kreska pseudotaktowa	!
4BBn/	.	-ri-	.	.	.	4dd\)	.
=46-	=46-	=46-	=46-	=46-	=46-	=46-	=46-
*	*	*	*	*	*	*	*ij
2AA/	.	-o-	2.c\	Vir-	1.ryy	2.ee\	Vir-
2AA,/	.	-sa	.	.	.	.	.
.	.	.	4c\	-go	.	4ee\	-go
!LO:TX:t=P:problem:kreska pseudotaktowa	!	!	!	!	!	!	!
2AA/	.	et	4B\	glo-	.	4dd\	glo-
!	!	!	!LO:TX:t=P:problem:kreska pseudotaktowa	!	!	!	!
.	.	.	4A\	-ri-	.	4cc\	-ri-
=47-	=47-	=47-	=47-	=47-	=47-	=47-	=47-
1E\	.	be-	2G#X/	-o-	1.ryy	2b\	-o-
.	.	.	4G#/	-sa	.	2b,\	-sa
*	*	*	*	*	*	*	*Xij
.	.	.	4G#/	et	.	.	.
!	!	!	!LO:TX:t=P:problem:kreska pseudotaktowa	!	!	!LO:TX:t=P:problem:kreska pseudotaktowa	!
1F\	.	-ne-	[2A/	be-	.	2dd\	et
=48-	=48-	=48-	=48-	=48-	=48-	=48-	=48-
!	!	!	!LO:N:xstem:cue	!	!	!LO:TX:t=P:problem:2\left	!
.	.	.	4A/]	.	1.ryy	2a\	be-
.	.	.	4A/	-ne-	.	.	.
!LO:TX:t=P:problem:kreska pseudotaktowa	!	!	!	!	!	!LO:TX:t=P:problem:2\left	!
1E\	.	-di-	2A/	-di-	.	2cc\	-ne-
!	!	!	!LO:TX:t=P:problem:kreska pseudotaktowa	!	!	!LO:TX:t=P:problem:kreska pseudotaktowa	!
.	.	.	2G#X/	.	.	2b\	-di-
=49-	=49-	=49-	=49-	=49-	=49-	=49-	=49-
2AA,/	.	-cta	2A,\	-cta	1.ryy	2cc#X,\	-cta
2A\	.	be-	2c\	be-	.	2a\	be-
!LO:TX:t=P:problem:kreska pseudotaktowa	!	!	!	!	!	!	!
2G#X\	.	-ne-	2B\	-ne-	.	2e/	-ne-
=50-	=50-	=50-	=50-	=50-	=50-	=50-	=50-
1.A\	.	-di-	1.c\	-di-	1.ryy	1.a\	-di-
=51-	=51-	=51-	=51-	=51-	=51-	=51-	=51-
!LO:N:vis=0	!	!	!LO:N:vis=0	!	!	!LO:N:vis=0	!
1.E\;	.	-cta.	1.B\;	-cta.	1.r	1.g#X\;	-cta.
==	==	==	==	==	==	==	==
*-	*-	*-	*-	*-	*-	*-	*-
!!!system-decoration: [(s1,s2,s3,s4)]
!!!EED: Leszek Kubiak
!!!EST: 2021-03-19
!!!ENC: Andrzej Borzym
!!!END: 2021-03-03
